X: 21377
T: Kerry Mills'
R: barndance
M: 4/4
K: Dmajor
|:F>G|A>FA>d f2 f2|A>FA>d f2 e>f|g>fe>d c2 c>d|(3efe (3dcB A2 F>G|
A>FA>d f2 f2|A>FA>d f2 e>f|g>fe>d c>AB>c|d2 f2 d2:|
|:d>e|f>ga>f d2 d2|f>ga>f d2 d>e|g>fe>d c2 c>d|(3efe (3dcB A2 d>e|
f>ga>f d2 d2|f>ga>f d2 e>f|g>fe>d c>AB>c|d2 f2 d2:|

